X:18
T:Ade and and and be the |
M:C (3de fe | d2 d2 (3cd | edc d2 :|
|: fe d2 | AG G2 G2 | AG G2 


*****************************


12000 0 2.2498837 

<startion (33 (33 |1 AG A2 | AG AG | AGA DED | ~33 ded | ede d2e | fed d2e | fed cAF | ~A3 d2 :|
|: fed |


*****************************


12100 0 1.4948822 

<startion (33-11
K:G
GBA GBA|GBd ~e3|dBA BAG|GBd ~e3|dBG GBG|GBd ~e3|fed edB|cBA ~G3|BAG B2B|AGB ~A3|BGB 


*****************************


12200 0 1.2581558 

<starion (33 (3Bc d2 | BAG AFD | ~G3 AFD | AGF G2G | AGF G2G | AGF G2G | AGF G2G | AGF G2G | AGF G2G | AG


*****************************


12300 0 1.3829527 

<starion partion partie the Bard Bartin Che the Bartin Che the Band Bartin Micher the Bartin: The Bartin 


*****************************


12400 0 1.1725986 

<startion (33 (3cd edB|BAB A2A|BAB AFA|BAB AFD|~E3 E2A|BAB AFE|EEE EED|EEE EED|EEE E2A|BAG AFE|EEE EED|EE


*****************************


12500 0 1.2861987 

<starions
<start>
